X:820271
T:[ID 5-16]
T:Bezeichnung standardisiert: Courante
T:Courant
C:Urheber unbekannt
C:Datum in der hier transkribierten schriftlichen Quelle: 1792
O:Deutschland; Westfalen; Dinker
S:"Tanzsammlung Dahlhoff" Staatsbibliothek zu Berlin, Musiksammlung, Mus. ms. 40182, Buch 08v, 027/1 (= 8, 169/1), PDF Nr: 1108
S:Scan online: http://resolver.staatsbibliothek-berlin.de/SBB0000969000001108
F:http://simonwascher.info/TradArchiv/Dahlhoff/ file-version 2017-11-21
Z:Erfassung in Capella Richmud Rollenbeck, Konversion nach MusicXML Joergen Lang, Konversion nach abc und abc Lektorat Simon Wascher
L:1/16
M:3/4
L:1/16
M:2/4
K:D
A2 |\ %auftakt
d2f2e2g2 | f2a2a2f2 | f2edc2d2 | edcB A2A2 | d2f2e2g2 | f2a2a2f2 | f2ed cdec | d6 ::
g2 |\ %auftakt
f2a2e2g2 | f2a2e2g2 | f2ed c2d2 | edcB A2g2 | f2a2e2g2 | f2a2a2f2 | f2ed cdec | d6 H:|

